X:1
T:Boatin' Up Sandy [3]
M:C|
L:1/8
Z: Contributed 2016-03-21 21:15:02 by jim Gaskins fiddeji@comcast.net
K:Amix
ef|g2 ee fe d2|efed Bdef| gage fgfd|e3 f e2 ef|
g2ee fed2|efed B2 AB|c2 Ac BAGB|ABAG E3 A|c2 AA BAG2|
A3A A2 AB|c2 AA BAG2|ABAG EGAB|c2 AA BAG2|A3A A2||
